logos/rabbitmq.svg

<?xml version="1.0" encoding="UTF-8"?>
<svg width="512px" height="87px" viewBox="0 0 512 87" version="1.1" xmlns="http://www.w3.org/2000/svg" xmlns:xlink="http://www.w3.org/1999/xlink" preserveAspectRatio="xMidYMid">
    <g>
        <path d="M477.949416,0 C496.269574,0 506.083945,16.6527704 506.083945,42.6344691 C506.083945,60.4691852 501.947135,72.8374025 494.201169,79.4647407 L494.201169,79.4647407 L511.993673,78.156158 L511.993673,85.1845136 L477.442868,85.1845136 C458.974967,85.1845136 448.801791,71.317758 448.801791,42.6344691 C448.801791,13.9511802 460.768991,0 477.949416,0 Z M379.679075,1.45632593 L403.064715,74.7158519 L403.317989,74.7158519 L426.788053,1.45632593 L438.523085,1.45632593 L438.523085,85.1423012 L431.895747,85.1423012 L431.895747,8.14698272 L407.1171,85.1423012 L399.476666,85.1423012 L374.36032,8.14698272 L374.36032,85.1423012 L367.669663,85.1423012 L367.669663,1.45632593 L379.679075,1.45632593 Z M477.864991,7.21831111 C463.576112,7.21831111 456.758819,18.8056 456.758819,42.6555753 C456.758819,66.5055506 462.161999,78.156158 477.506187,78.156158 C492.850374,78.156158 498.042493,64.2471901 498.042493,42.6555753 C498.042493,21.0639605 492.15387,7.21831111 477.864991,7.21831111 Z" fill="#A9B5AF"></path>
        <path d="M338.923056,10.0254321 L338.923056,27.3747062 L354.351668,27.3747062 L354.351668,33.1577975 L338.944162,33.1577975 L338.944162,70.3046617 C338.944162,71.9720494 338.543145,80.5833679 347.682117,80.5833679 C349.943372,80.5600008 352.189526,80.2117048 354.351668,79.5491654 L354.351668,85.9443358 C352.307872,86.22696 350.250759,86.4030827 348.188666,86.4719901 C344.0877,86.7204104 340.026117,85.5503764 336.685801,83.158321 C334.153061,81.0477037 332.907796,77.3330173 332.907796,72.2464296 L332.907796,33.1789037 L323.663293,33.1789037 L323.663293,27.3958123 L332.907796,27.3958123 L332.907796,14.0567111 L338.923056,10.0254321 Z M207.516024,1.43521975 L207.516024,38.3288099 L207.727085,38.3288099 C209.735722,31.0910769 216.341001,26.0938901 223.852201,26.129442 C228.495559,26.129442 243.903066,29.0632 243.903066,56.9233481 C243.903066,84.7834963 226.34273,86.4719901 221.530522,86.4719901 C201.922044,86.4719901 201.428522,65.613781 201.416625,61.7202487 L201.41634,1.43521975 L207.516024,1.43521975 Z M259.37389,1.43521975 L259.37389,38.3288099 L259.627164,38.3288099 C261.635802,31.0910769 268.24108,26.0938901 275.75228,26.129442 C280.395638,26.129442 295.803145,29.0632 295.803145,56.9233481 C295.803145,84.7834963 278.242809,86.4719901 273.430601,86.4719901 C253.822123,86.4719901 253.328601,65.613781 253.316704,61.7202487 L253.316419,1.43521975 L259.37389,1.43521975 Z M173.408448,26.0872296 C191.631096,26.0872296 191.468519,39.2832395 191.454727,45.353404 L191.454226,85.1423012 L185.438967,85.1423012 L185.438967,76.9742123 L185.185693,76.9742123 C183.222074,79.9170479 180.570551,82.336743 177.460833,84.0236741 C174.312601,85.6751933 170.800078,86.5097804 167.245446,86.450884 C164.839342,86.450884 152.471125,85.9443358 152.471125,71.0222716 C152.471125,56.1002074 168.638453,53.5252543 178.537248,52.7654321 C180.800743,52.5463843 184.264067,52.5167832 185.158765,52.512783 L185.2955,52.512293 C185.312966,52.512248 185.327693,52.512218 185.339567,52.512198 L185.375648,52.512158 L185.375761,47.3141943 C185.375832,47.2693576 185.375931,47.2238509 185.376044,47.1776924 L185.376791,46.893064 C185.376908,46.8443705 185.377012,46.7950614 185.377089,46.7451548 L185.377119,46.4386899 C185.369177,41.5818368 184.890628,31.870321 172.838582,31.870321 C162.939787,31.870321 161.504567,37.8644741 160.829169,41.2414617 L160.829169,41.2414617 L153.399796,41.2414617 C153.399796,38.4976593 154.81391,26.0872296 173.408448,26.0872296 Z M116.21072,1.60406914 C138.203352,1.60406914 142.994453,13.1491457 142.994453,23.0268346 C142.994453,33.7909827 137.886759,41.6846914 126.109515,43.9852642 C126.109515,43.9852642 133.285614,46.0958815 135.797248,50.0005235 C137.696804,52.9553877 138.625475,55.8680395 140.018483,62.6642272 L140.018483,62.6642272 L144.767372,85.2478321 L137.464636,85.2478321 L133.243401,65.450242 C131.913712,59.962637 131.069466,51.3724247 123.661199,48.5653037 C121.155359,47.6773092 118.50996,47.2483256 115.851915,47.2989333 L115.851915,47.2989333 L105.805377,47.2989333 L105.805377,85.1423012 L98.5448532,85.1423012 L98.5448532,1.60406914 Z M312.139322,27.3958123 L312.139322,85.1423012 L306.081851,85.1423012 L306.081851,27.3958123 L312.139322,27.3958123 Z M223.176804,31.8492148 C216.887164,31.8492148 207.748191,38.708721 207.748191,57.7042765 C207.748191,80.1464701 219.038787,80.595314 221.397447,80.6042909 L221.594589,80.604306 C223.816283,80.5924773 236.60033,79.8853868 236.60033,56.7544988 L236.60033,56.7544988 L236.598198,56.2257858 C236.457736,38.1998659 229.403547,31.8492148 223.176804,31.8492148 Z M275.076883,31.8492148 C268.787243,31.8492148 259.64827,38.708721 259.64827,57.7042765 C259.64827,80.1464701 270.938866,80.595314 273.297526,80.6042909 L273.494668,80.604306 C275.716362,80.5924773 288.500409,79.8853868 288.500409,56.7544988 L288.500409,56.7544988 L288.479303,56.7756049 C288.479303,38.3288099 281.366522,31.8492148 275.076883,31.8492148 Z M185.354542,58.2952494 L185.269703,58.2961969 C184.286668,58.307586 175.049076,58.4256554 172.711945,58.865116 C160.955806,61.1234765 159.773783,68.2784691 159.773783,71.3388642 C159.763996,73.5501757 160.68959,75.6625642 162.322018,77.1542659 C163.954446,78.6459676 166.141498,79.3778927 168.342967,79.1692543 C176.625719,79.1915185 183.679064,73.1522038 184.932419,64.9648 C185.211041,62.7524969 185.352021,60.5250272 185.354542,58.2952494 L185.354542,58.2952494 Z M115.387579,8.10477037 L105.805377,8.10477037 L105.805377,40.6293827 L112.432715,40.6293827 C134.953001,40.6293827 135.649505,26.6993086 135.649505,22.8790914 L135.649153,22.7394011 C135.62533,18.0754995 134.339445,8.10477037 115.387579,8.10477037 L115.387579,8.10477037 Z M313.53233,1.45632593 L313.53233,11.2706963 L304.583312,11.2706963 L304.583312,1.45632593 L313.53233,1.45632593 Z" fill="#FF6600"></path>
        <path d="M80.8578804,34.6141235 L53.9052976,34.6141235 C53.0079411,34.6197852 52.1456976,34.2658148 51.5111581,33.6312753 C50.8766186,32.9967358 50.5226483,32.1344923 50.52831,31.2371358 L50.52831,4.28455309 C50.5283277,3.390849 50.1718668,2.5340532 49.5379447,1.90409309 C48.9040226,1.27413298 48.0450087,0.923050824 47.1513223,0.928671605 L37.0625717,0.928671605 C36.1688853,0.923050824 35.3098715,1.27413298 34.6759494,1.90409309 C34.0420273,2.5340532 33.6855664,3.390849 33.6855841,4.28455309 L33.6855841,31.2371358 C33.6912458,32.1344923 33.3372754,32.9967358 32.7027359,33.6312753 C32.0681964,34.2658148 31.2059529,34.6197852 30.3085964,34.6141235 L20.2198458,34.6141235 C19.3224893,34.6197852 18.4602458,34.2658148 17.8257063,33.6312753 C17.1911668,32.9967358 16.8371964,32.1344923 16.8428581,31.2371358 L16.8428581,4.28455309 C16.8485199,3.38719658 16.4945495,2.52495307 15.86001,1.89041357 C15.2254705,1.25587407 14.363227,0.901903707 13.4658705,0.907498544 L3.3560137,0.907498544 C2.46230961,0.907498544 1.60551381,1.26400863 0.975553704,1.89793075 C0.345593597,2.53185287 -0.00548856313,3.39086668 6.53290055e-05,4.28455309 L6.53290055e-05,81.7864198 C-0.00552950716,82.6837763 0.348440856,83.5460198 0.982980353,84.1805593 C1.61751985,84.8150988 2.47976337,85.1690691 3.37711987,85.1634743 L80.8578804,85.1634743 C81.7552369,85.1690691 82.6174804,84.8150988 83.2520199,84.1805593 C83.8865594,83.5460198 84.2405297,82.6837763 84.234868,81.7864198 L84.234868,38.0544296 C84.257744,37.1461849 83.9113891,36.2674751 83.2749537,35.6191065 C82.6385183,34.9707379 81.7663934,34.6081214 80.8578804,34.6141235 Z M67.3077616,63.2340938 C67.3133304,64.5755985 66.78435,65.864084 65.837737,66.8146577 C64.8911241,67.7652313 63.6048585,68.2995753 62.2633421,68.2995753 L55.5093668,68.2995753 C54.1678504,68.2995753 52.8815848,67.7652313 51.9349719,66.8146577 C50.9883589,65.864084 50.4593784,64.5755985 50.4649473,63.2340938 L50.4649473,56.5012247 C50.4593784,55.15972 50.9883589,53.8712345 51.9349719,52.9206609 C52.8815848,51.9700872 54.1678504,51.4357432 55.5093668,51.4357432 L62.2633421,51.4357432 C63.6048585,51.4357432 64.8911241,51.9700872 65.837737,52.9206609 C66.78435,53.8712345 67.3133304,55.15972 67.3077616,56.5012247 L67.3077616,63.2340938 L67.3077616,63.2340938 Z" fill="#FF6600"></path>
    </g>
</svg>

<svg width="512" height="87" xmlns="http://www.w3.org/2000/svg" preserveAspectRatio="xMidYMid">
	<path d="M477.95 0c18.32 0 28.134 16.653 28.134 42.634 0 17.835-4.137 30.203-11.883 36.83l17.793-1.308v7.029h-34.551c-18.468 0-28.641-13.867-28.641-42.55C448.802 13.95 460.769 0 477.949 0Zm-98.27 1.456 23.385 73.26h.253l23.47-73.26h11.735v83.686h-6.627V8.147l-24.779 76.995h-7.64L374.36 8.147v76.995h-6.69V1.456h12.01Zm98.185 5.762c-14.289 0-21.106 11.588-21.106 35.438s5.403 35.5 20.747 35.5c15.344 0 20.536-13.909 20.536-35.5 0-21.592-5.888-35.438-20.177-35.438Z" fill="#A9B5AF"/>
	<path d="M338.923 10.025v17.35h15.429v5.783h-15.408v37.147c0 1.667-.4 10.278 8.738 10.278a23.597 23.597 0 0 0 6.67-1.034v6.395c-2.044.283-4.101.46-6.163.528a17.898 17.898 0 0 1-11.503-3.314c-2.533-2.11-3.778-5.825-3.778-10.912V33.18h-9.245v-5.783h9.245v-13.34l6.015-4.03Zm-131.407-8.59V38.33h.211a16.653 16.653 0 0 1 16.125-12.2c4.644 0 20.051 2.934 20.051 30.794s-17.56 29.549-22.372 29.549c-19.609 0-20.102-20.858-20.114-24.752V1.435h6.099Zm51.858 0V38.33h.253a16.653 16.653 0 0 1 16.125-12.2c4.644 0 20.051 2.934 20.051 30.794s-17.56 29.549-22.372 29.549c-19.609 0-20.102-20.858-20.114-24.752V1.435h6.057Zm-85.966 24.652c18.223 0 18.06 13.196 18.047 19.266v39.79h-6.016v-8.169h-.253a21.76 21.76 0 0 1-7.725 7.05 21.233 21.233 0 0 1-10.216 2.427c-2.406 0-14.774-.507-14.774-15.429s16.167-17.497 26.066-18.257c2.264-.219 5.727-.248 6.622-.252h.217v-5.62l.001-.148v-.306c-.008-4.857-.486-14.569-12.538-14.569-9.9 0-11.334 5.994-12.01 9.371h-7.43c0-2.743 1.415-15.154 20.01-15.154ZM116.211 1.604c21.992 0 26.783 11.545 26.783 21.423 0 10.764-5.107 18.658-16.884 20.958 0 0 7.176 2.11 9.687 6.016 1.9 2.954 2.828 5.867 4.221 12.663l4.75 22.584h-7.303l-4.222-19.798c-1.33-5.487-2.174-14.078-9.582-16.885a22.12 22.12 0 0 0-7.81-1.266h-10.046v37.843h-7.26V1.604Zm195.928 25.792v57.746h-6.057V27.396h6.057Zm-88.962 4.453c-6.29 0-15.429 6.86-15.429 25.855 0 22.442 11.29 22.891 13.65 22.9h.197c2.221-.012 15.005-.719 15.005-23.85l-.002-.528c-.14-18.026-7.194-24.377-13.421-24.377Zm51.9 0c-6.29 0-15.429 6.86-15.429 25.855 0 22.442 11.29 22.891 13.65 22.9h.197c2.221-.012 15.005-.719 15.005-23.85l-.02.022c0-18.447-7.113-24.927-13.403-24.927Zm-89.722 26.446-.085.001c-.983.012-10.22.13-12.558.57-11.756 2.257-12.938 9.412-12.938 12.473a7.83 7.83 0 0 0 8.569 7.83 16.737 16.737 0 0 0 16.59-14.204c.278-2.213.419-4.44.422-6.67Zm-69.967-50.19h-9.583v32.524h6.628c22.52 0 23.217-13.93 23.217-17.75v-.14c-.025-4.664-1.31-14.634-20.262-14.634Zm198.144-6.649v9.815h-8.949V1.456h8.95Z" fill="#F60"/>
	<path d="M80.858 34.614H53.905a3.356 3.356 0 0 1-3.377-3.377V4.285A3.356 3.356 0 0 0 47.151.929H37.063a3.356 3.356 0 0 0-3.377 3.356v26.952a3.356 3.356 0 0 1-3.377 3.377h-10.09a3.356 3.356 0 0 1-3.376-3.377V4.285A3.356 3.356 0 0 0 13.466.907H3.356A3.356 3.356 0 0 0 0 4.285v77.501a3.356 3.356 0 0 0 3.377 3.377h77.48a3.356 3.356 0 0 0 3.378-3.377V38.054a3.356 3.356 0 0 0-3.377-3.44Zm-13.55 28.62a5.045 5.045 0 0 1-5.045 5.066H55.51a5.044 5.044 0 0 1-5.044-5.066v-6.733a5.045 5.045 0 0 1 5.044-5.065h6.754a5.044 5.044 0 0 1 5.045 5.065v6.733Z" fill="#F60"/>
</svg>
